X: 252
T: Ben Güzele Güzel Demem
C: Sadettin Kaynak
O: Turkey
F: http://compmusic.upf.edu/node/140
N: mahur--sarki--duyek--ben_guzele--sadettin_kaynak
N: makam= mahur
N: form= sarki
N: usul= duyek = 8/4
M: 8/4
L: 1/16
K: C ^9/8f   
Q: 1/4=300
%%MIDI tuningsystem comma53
g3f g2 a2 g4 z4  | g3f g2 a2 g4 z4  | \
w:  ARANAĞME  |   | 
g3f g2 a2 b2 a2 g2 f2  | e12 z4  | 
w:   |   | 
f3e f2 g2 a2 g2 f2 e2  | d12 z4  | c2 e4 c2 e4 z4  | \
w:   |   |   | 
B2 d4 B2 d4 z4  | A3c B2 A2 G2 F2 E2 F2  | 
w:   |   | 
G6 AB cd ef g4  | g3f g2 a2 g4 z4  | \
w:   |  ARANAĞME  | 
g3f g2 a2 g4 z4  | g3f g2 a2 b2 a2 g2 f2  | 
w:   |   | 
e12 z4  | f3e f2 g2 a2 g2 f2 e2  | d12 z4  | \
w:   |   |   | 
c2 e4 c2 e4 z4  | B2 d4 B2 d4 z4  | 
w:   |   | 
A3c B2 A2 G2 F2 E2 F2  | G6 AB cd ef g4  | \
w:   |   | 
z2 {f}g4 g2 g2 g6  | 
w:  *  Ben  gü ze le   | 
f2 g4 a2 g2 f2 e2 d2  | f2 g6 g2 g6  | \
w:  gü zel  *  de *  mem  |  gü zel  be nim   | 
z2 g4 {g}a2 g2 f2 e2 d2  | d3^3/4c d2 e2 d4 z4  | 
w:  ol *  ma yın *  ca   |  hey   | 
e3d e2 f2 e4 z4  | f3e f2 g2 a4 b4  | \
w:  hey   |  hey   | 
a4 g4 f4 e4  | b4 a2 g2 a4 g2 f2  | 
w:   |  hey   | 
g12 z4  | g3f g2 a2 g3f g2 a2  | b16  | \
w:  hey   |  SAZ  |   | 
(3c'2b2a2 (3b2a2g2 (3a2g2f2 (3g2f2e2  | 
w:   | 
e12 z4  | d3^c d2 e2 d3c d2 e2  | g16  | \
w:   |   |   | 
(3a2g2^3/4f2 (3g2=f2e2 (3f2e2d2 (3e2d2c2  | 
w:   | 
B6 .c2 .B2 .d2 .c4  | B2 c6 c4 e4  | \
w:   |  Mu han na tın   | 
d4 c4 B4 d4  | z2 d4 d2 d4 d4  | z2 e4 d2 c2 B2 c4  | 
w:  kah rın  çek mem   |  gel  de yip  de   |  gel  me yin *  ce   | 
B2 c6 c2 c4 _2/4B2  | _2/4B6 A2 _7/8B2 A2 G2 F2  | \
w:  Se nin  ça ğın   |  ge *  çer  *  o  | 
G12 d4  | e3d e2 f2 g2 a2 b2 c'2  | 
w:  lur  SAZ  |   | 
B2 c6 c4 c2 _2/4B2  | _2/4B6 A2 _7/8B2 A2 G2 F2  | \
w:  Bu  dün ya lar   |  ki *  me  *  ka  | 
G12 d4  | e3d e2 f2 g2 a2 b2 c'2  | 
w:  lır  SAZ  |   | 
B2 c6 c4 e4  | d8 e4 f4  | g12 =f2 e2  | \
w:  To mur cuk  gül   |  ga zel_ o  |  lur   | 
d2 c2 B2 A2 _2/4B3A G4  | A4 {d}c4 B4 A4  | 
w:   |  vak *  tin de  de  | 
G6 F2 E4 F4  | G12 A2 B2  | c2 c2 B2 A2 G4 z4  | \
w:  ril *  me yin  |  ce   SAZ  |   | 
g3f g2 a2 g4 z4  | g3f g2 a2 g4 z4  | 
w:  ARANAĞME  |   | 
g3f g2 a2 b2 a2 g2 f2  | e12 z4  | f3e f2 g2 a2 g2 f2 e2  | \
w:   |   |   | 
d12 z4  | c2 e4 c2 e4 z4  | 
w:   |   | 
B2 d4 B2 d4 z4  | A3c B2 A2 G2 F2 E2 F2  | \
w:   |   | 
G6 AB cd ef g4  | 
w:   | 
g3f g2 a2 g4 z4  | g3f g2 a2 g4 z4  | \
w:  ARANAĞME  |   | 
g3f g2 a2 b2 a2 g2 f2  | e12 z4  | 
w:   |   | 
f3e f2 g2 a2 g2 f2 e2  | d12 z4  | c2 e4 c2 e4 z4  | \
w:   |   |   | 
B2 d4 B2 d4 z4  | A3c B2 A2 G2 F2 E2 F2  | 
w:   |   | 
G6 AB cd ef g4  | z4 g2 g2 g4 g4  | f2 g4 a2 g2 f2 e2 d2  | \
w:   |  Ka ra coğ lan   |  sö zün  *  hak *  tır   | 
z2 .g4 g2 g4 g4  | 
w:  düş ma nın  dos  | 
g4 g2 a2 g2 f2 e2 d2  | d3^3/4c d2 e2 d4 z4  | \
w:  tun dan  *  çok *  tur   |  hey   | 
e3d e2 f2 e4 z4  | f3e f2 g2 a4 b4  | 
w:  hey   |  hey   | 
a4 g4 f4 e4  | b4 a2 g2 a4 g2 f2  | g12 z4  | \
w:   |  hey   |  hey   | 
g3f g2 a2 g3f g2 a2  | b16  | 
w:  SAZ  |   | 
(3c'2b2a2 (3b2a2g2 (3a2g2f2 (3g2f2e2  | \
w:   | 
e12 z4  | d3^c d2 e2 d3c d2 e2  | 
w:   |   | 
g16  | (3a2g2^3/4f2 (3g2=f2e2 (3f2e2d2 (3e2d2c2  | \
w:   |   | 
B6 .c2 .B2 .d2 .c4  | B2 c6 c4 e4  | 
w:   |  Bi zim  çün  ay  | 
d4 c4 B4 d4  | z4 d2 d4 d2 d4  | z2 e4 d2 c2 B2 c4  | \
w:  rı lık  yok tur  |  ya  sen  ya  ben   |  öl me yin *  ce   | 
B2 c6 c2 c4 _2/4B2  | _2/4B6 A2 _7/8B2 A2 G2 F2  | 
w:  Se nin  ça ğın   |  ge *  çer  *  o  | 
G12 d4  | e3d e2 f2 g2 a2 b2 c'2  | B2 c6 c4 c2 _2/4B2  | \
w:  lur  SAZ  |   |  Bu  dün ya lar   | 
_2/4B6 A2 _7/8B2 A2 G2 F2  | 
w:  ki *  me  *  ka  | 
G12 d4  | e3d e2 f2 g2 a2 b2 c'2  | B2 c6 c4 e4  | \
w:  lır  SAZ  |   |  To mur cuk  gül   | 
d8 e4 f4  | g12 =f2 e2  | d2 c2 B2 A2 _2/4B3A G4  | 
w:  ga zel_ o  |  lur   |   | 
A4 {d}c4 B4 A4  | G6 F2 E4 F4  | G12 A2 B2  | \
w:  vak *  tin de  de  |  ril *  me yin  |  ce   SAZ  | 
c2 c2 B2 A2 G4 z4  | |


